luts/PQ1000_to_Rec709_SDR_g24_YouTubeHint.cube
TITLE "Rec.2020 ST.2084 PQ to Rec.709 SDR (gamma 2.4) - YouTube SDR downconvert hint"
# Input: PQ signal Rec.2020, ref white 203 nits | same shoulder as HLG variant | attach via mkvmerge
LUT_3D_SIZE 65
DOMAIN_MIN 0.0 0.0 0.0
DOMAIN_MAX 1.0 1.0 1.0
0.000000 0.000000 0.000000
0.015275 0.000000 0.000000
0.027274 0.000000 0.000000
0.039343 0.000000 0.000000
0.051851 0.000000 0.000000
0.064954 0.000000 0.000000
0.078743 0.000000 0.000000
0.093288 0.000000 0.000000
0.108647 0.000000 0.000000
0.124876 0.000000 0.000000
0.142026 0.000000 0.000000
0.160150 0.000000 0.000000
0.179301 0.000000 0.000000
0.199536 0.000000 0.000000
0.220910 0.000000 0.000000
0.243486 0.000000 0.000000
0.267326 0.000000 0.000000
0.292497 0.000000 0.000000
0.319070 0.000000 0.000000
0.347118 0.000000 0.000000
0.376720 0.000000 0.000000
0.407961 0.000000 0.000000
0.440927 0.000000 0.000000
0.475712 0.000000 0.000000
0.512417 0.000000 0.000000
0.551145 0.000000 0.000000
0.592009 0.000000 0.000000
0.635129 0.000000 0.000000
0.680630 0.000000 0.000000
0.728647 0.000000 0.000000
0.779323 0.000000 0.000000
0.832812 0.000000 0.000000
0.889275 0.000000 0.000000
0.948887 0.000000 0.000000
1.000000 0.000000 0.000000
1.000000 0.000000 0.000000
1.000000 0.000000 0.000000
1.000000 0.000000 0.000000
1.000000 0.000000 0.000000
1.000000 0.000000 0.000000
1.000000 0.000000 0.000000
1.000000 0.000000 0.000000
1.000000 0.000000 0.000000
1.000000 0.000000 0.000000
1.000000 0.000000 0.000000
1.000000 0.000000 0.000000
1.000000 0.000000 0.000000
1.000000 0.000000 0.000000
1.000000 0.000000 0.000000
1.000000 0.000000 0.000000
1.000000 0.000000 0.000000
1.000000 0.000000 0.000000
1.000000 0.000000 0.000000
1.000000 0.000000 0.000000
1.000000 0.000000 0.000000
1.000000 0.000000 0.000000
1.000000 0.000000 0.000000
1.000000 0.000000 0.000000
1.000000 0.000000 0.000000
1.000000 0.000000 0.000000
1.000000 0.000000 0.000000
1.000000 0.000000 0.000000
1.000000 0.000000 0.000000
1.000000 0.000000 0.000000
1.000000 0.000000 0.000000
0.000000 0.013025 0.000000
0.012733 0.012408 0.000000
0.026246 0.010215 0.000000
0.038738 0.000000 0.000000
0.051442 0.000000 0.000000
0.064656 0.000000 0.000000
0.078515 0.000000 0.000000
0.093109 0.000000 0.000000
0.108503 0.000000 0.000000
0.124757 0.000000 0.000000
0.141927 0.000000 0.000000
0.160066 0.000000 0.000000
0.179230 0.000000 0.000000
0.199474 0.000000 0.000000
0.220857 0.000000 0.000000
0.243439 0.000000 0.000000
0.267285 0.000000 0.000000
0.292461 0.000000 0.000000
0.319038 0.000000 0.000000
0.347089 0.000000 0.000000
0.376695 0.000000 0.000000
0.407938 0.000000 0.000000
0.440906 0.000000 0.000000
0.475694 0.000000 0.000000
0.512400 0.000000 0.000000
0.551130 0.000000 0.000000
0.591996 0.000000 0.000000
0.635117 0.000000 0.000000
0.680619 0.000000 0.000000
0.728637 0.000000 0.000000
0.779314 0.000000 0.000000
0.832803 0.000000 0.000000
0.889267 0.000000 0.000000
0.948880 0.000000 0.000000
1.000000 0.000000 0.000000
1.000000 0.000000 0.000000
1.000000 0.000000 0.000000
1.000000 0.000000 0.000000
1.000000 0.000000 0.000000
1.000000 0.000000 0.000000
1.000000 0.000000 0.000000
1.000000 0.000000 0.000000
1.000000 0.000000 0.000000
1.000000 0.000000 0.000000
1.000000 0.000000 0.000000
1.000000 0.000000 0.000000
1.000000 0.000000 0.000000
1.000000 0.000000 0.000000
1.000000 0.000000 0.000000
1.000000 0.000000 0.000000
1.000000 0.000000 0.000000
1.000000 0.000000 0.000000
1.000000 0.000000 0.000000
1.000000 0.000000 0.000000
1.000000 0.000000 0.000000
1.000000 0.000000 0.000000
1.000000 0.000000 0.000000
1.000000 0.000000 0.000000
1.000000 0.000000 0.000000
1.000000 0.000000 0.000000
1.000000 0.000000 0.000000
1.000000 0.000000 0.000000
1.000000 0.000000 0.000000
1.000000 0.000000 0.000000
1.000000 0.000000 0.000000
0.000000 0.023257 0.000000
0.000000 0.022990 0.000000
0.022735 0.022156 0.000000
0.036823 0.020458 0.000000
0.050178 0.017221 0.000000
0.063744 0.009536 0.000000
0.077824 0.000000 0.000000
0.092565 0.000000 0.000000
0.108064 0.000000 0.000000
0.124397 0.000000 0.000000
0.141626 0.000000 0.000000
0.159812 0.000000 0.000000
0.179013 0.000000 0.000000
0.199287 0.000000 0.000000
0.220695 0.000000 0.000000
0.243298 0.000000 0.000000
0.267161 0.000000 0.000000
0.292352 0.000000 0.000000
0.318941 0.000000 0.000000
0.347004 0.000000 0.000000
0.376618 0.000000 0.000000
0.407869 0.000000 0.000000
0.440845 0.000000 0.000000
0.475639 0.000000 0.000000
0.512350 0.000000 0.000000
0.551085 0.000000 0.000000
0.591955 0.000000 0.000000
0.635080 0.000000 0.000000
0.680585 0.000000 0.000000
0.728606 0.000000 0.000000
0.779286 0.000000 0.000000
0.832778 0.000000 0.000000
0.889244 0.000000 0.000000
0.948859 0.000000 0.000000
1.000000 0.000000 0.000000
1.000000 0.000000 0.000000
1.000000 0.000000 0.000000
1.000000 0.000000 0.000000
1.000000 0.000000 0.000000
1.000000 0.000000 0.000000
1.000000 0.000000 0.000000
1.000000 0.000000 0.000000
1.000000 0.000000 0.000000
1.000000 0.000000 0.000000
1.000000 0.000000 0.000000
1.000000 0.000000 0.000000
1.000000 0.000000 0.000000
1.000000 0.000000 0.000000
1.000000 0.000000 0.000000
1.000000 0.000000 0.000000
1.000000 0.000000 0.000000
1.000000 0.000000 0.000000
1.000000 0.000000 0.000000
1.000000 0.000000 0.000000
1.000000 0.000000 0.000000
1.000000 0.000000 0.000000
1.000000 0.000000 0.000000
1.000000 0.000000 0.000000
1.000000 0.000000 0.000000
1.000000 0.000000 0.000000
1.000000 0.000000 0.000000
1.000000 0.000000 0.000000
1.000000 0.000000 0.000000
1.000000 0.000000 0.000000
1.000000 0.000000 0.000000
0.000000 0.033549 0.000000
0.000000 0.033390 0.000000
0.012280 0.032903 0.000000
0.032797 0.031960 0.000000
0.047677 0.030359 0.000000
0.061984 0.027744 0.000000
0.076502 0.023343 0.000000
0.091532 0.014196 0.000000
0.107235 0.000000 0.000000
0.123717 0.000000 0.000000
0.141060 0.000000 0.000000
0.159334 0.000000 0.000000
0.178605 0.000000 0.000000
0.198937 0.000000 0.000000
0.220391 0.000000 0.000000
0.243033 0.000000 0.000000
0.266929 0.000000 0.000000
0.292147 0.000000 0.000000
0.318760 0.000000 0.000000
0.346842 0.000000 0.000000
0.376475 0.000000 0.000000
0.407741 0.000000 0.000000
0.440730 0.000000 0.000000
0.475535 0.000000 0.000000
0.512257 0.000000 0.000000
0.551001 0.000000 0.000000
0.591879 0.000000 0.000000
0.635011 0.000000 0.000000
0.680522 0.000000 0.000000
0.728549 0.000000 0.000000
0.779235 0.000000 0.000000
0.832731 0.000000 0.000000
0.889201 0.000000 0.000000
0.948819 0.000000 0.000000
1.000000 0.000000 0.000000
1.000000 0.000000 0.000000
1.000000 0.000000 0.000000
1.000000 0.000000 0.000000
1.000000 0.000000 0.000000
1.000000 0.000000 0.000000
1.000000 0.000000 0.000000
1.000000 0.000000 0.000000
1.000000 0.000000 0.000000
1.000000 0.000000 0.000000
1.000000 0.000000 0.000000
1.000000 0.000000 0.000000
1.000000 0.000000 0.000000
1.000000 0.000000 0.000000
1.000000 0.000000 0.000000
1.000000 0.000000 0.000000
1.000000 0.000000 0.000000
1.000000 0.000000 0.000000
1.000000 0.000000 0.000000
1.000000 0.000000 0.000000
1.000000 0.000000 0.000000
1.000000 0.000000 0.000000
1.000000 0.000000 0.000000
1.000000 0.000000 0.000000
1.000000 0.000000 0.000000
1.000000 0.000000 0.000000
1.000000 0.000000 0.000000
1.000000 0.000000 0.000000
1.000000 0.000000 0.000000
1.000000 0.000000 0.000000
1.000000 0.000000 0.000000
0.000000 0.044216 0.000000
0.000000 0.044108 0.000000
0.000000 0.043779 0.000000
0.024265 0.043154 0.000000
0.043224 0.042121 0.000000
0.058999 0.040524 0.000000
0.074309 0.038117 0.000000
0.089839 0.034464 0.000000
0.105884 0.028587 0.000000
0.122614 0.016486 0.000000
0.140143 0.000000 0.000000
0.158562 0.000000 0.000000
0.177948 0.000000 0.000000
0.198372 0.000000 0.000000
0.219902 0.000000 0.000000
0.242607 0.000000 0.000000
0.266555 0.000000 0.000000
0.291818 0.000000 0.000000
0.318468 0.000000 0.000000
0.346583 0.000000 0.000000
0.376244 0.000000 0.000000
0.407534 0.000000 0.000000
0.440544 0.000000 0.000000
0.475369 0.000000 0.000000
0.512107 0.000000 0.000000
0.550865 0.000000 0.000000
0.591756 0.000000 0.000000
0.634900 0.000000 0.000000
0.680422 0.000000 0.000000
0.728458 0.000000 0.000000
0.779151 0.000000 0.000000
0.832655 0.000000 0.000000
0.889132 0.000000 0.000000
0.948756 0.000000 0.000000
1.000000 0.000000 0.000000
1.000000 0.000000 0.000000
1.000000 0.000000 0.000000
1.000000 0.000000 0.000000
1.000000 0.000000 0.000000
1.000000 0.000000 0.000000
1.000000 0.000000 0.000000
1.000000 0.000000 0.000000
1.000000 0.000000 0.000000
1.000000 0.000000 0.000000
1.000000 0.000000 0.000000
1.000000 0.000000 0.000000
1.000000 0.000000 0.000000
1.000000 0.000000 0.000000
1.000000 0.000000 0.000000
1.000000 0.000000 0.000000
1.000000 0.000000 0.000000
1.000000 0.000000 0.000000
1.000000 0.000000 0.000000
1.000000 0.000000 0.000000
1.000000 0.000000 0.000000
1.000000 0.000000 0.000000
1.000000 0.000000 0.000000
1.000000 0.000000 0.000000
1.000000 0.000000 0.000000
1.000000 0.000000 0.000000
1.000000 0.000000 0.000000
1.000000 0.000000 0.000000
1.000000 0.000000 0.000000
1.000000 0.000000 0.000000
1.000000 0.000000 0.000000
0.000000 0.055388 0.000000
0.000000 0.055310 0.000000
0.000000 0.055071 0.000000
0.000000 0.054619 0.000000
0.035110 0.053882 0.000000
0.054146 0.052765 0.000000
0.070886 0.051135 0.000000
0.087246 0.048799 0.000000
0.103838 0.045450 0.000000
0.120954 0.040518 0.000000
0.138771 0.032648 0.000000
0.157409 0.014652 0.000000
0.176968 0.000000 0.000000
0.197531 0.000000 0.000000
0.219175 0.000000 0.000000
0.241974 0.000000 0.000000
0.266000 0.000000 0.000000
0.291329 0.000000 0.000000
0.318036 0.000000 0.000000
0.346199 0.000000 0.000000
0.375902 0.000000 0.000000
0.407228 0.000000 0.000000
0.440270 0.000000 0.000000
0.475122 0.000000 0.000000
0.511885 0.000000 0.000000
0.550665 0.000000 0.000000
0.591575 0.000000 0.000000
0.634735 0.000000 0.000000
0.680272 0.000000 0.000000
0.728322 0.000000 0.000000
0.779028 0.000000 0.000000
0.832542 0.000000 0.000000
0.889029 0.000000 0.000000
0.948662 0.000000 0.000000
1.000000 0.000000 0.000000
1.000000 0.000000 0.000000
1.000000 0.000000 0.000000
1.000000 0.000000 0.000000
1.000000 0.000000 0.000000
1.000000 0.000000 0.000000
1.000000 0.000000 0.000000
1.000000 0.000000 0.000000
1.000000 0.000000 0.000000
1.000000 0.000000 0.000000
1.000000 0.000000 0.000000
1.000000 0.000000 0.000000
1.000000 0.000000 0.000000
1.000000 0.000000 0.000000
1.000000 0.000000 0.000000
1.000000 0.000000 0.000000
1.000000 0.000000 0.000000
1.000000 0.000000 0.000000
1.000000 0.000000 0.000000
1.000000 0.000000 0.000000
1.000000 0.000000 0.000000
1.000000 0.000000 0.000000
1.000000 0.000000 0.000000
1.000000 0.000000 0.000000
1.000000 0.000000 0.000000
1.000000 0.000000 0.000000
1.000000 0.000000 0.000000
1.000000 0.000000 0.000000
1.000000 0.000000 0.000000
1.000000 0.000000 0.000000
1.000000 0.000000 0.000000
0.000000 0.067147 0.000000
0.000000 0.067087 0.000000
0.000000 0.066905 0.000000
0.000000 0.066561 0.000000
0.012886 0.066005 0.000000
0.046060 0.065168 0.000000
0.065640 0.063966 0.000000
0.083407 0.062282 0.000000
0.100862 0.059955 0.000000
0.118566 0.056739 0.000000
0.136808 0.052229 0.000000
0.155769 0.045640 0.000000
0.175578 0.034889 0.000000
0.196341 0.000000 0.000000
0.218147 0.000000 0.000000
0.241079 0.000000 0.000000
0.265217 0.000000 0.000000
0.290640 0.000000 0.000000
0.317426 0.000000 0.000000
0.345658 0.000000 0.000000
0.375420 0.000000 0.000000
0.406798 0.000000 0.000000
0.439884 0.000000 0.000000
0.474775 0.000000 0.000000
0.511572 0.000000 0.000000
0.550382 0.000000 0.000000
0.591320 0.000000 0.000000
0.634504 0.000000 0.000000
0.680063 0.000000 0.000000
0.728131 0.000000 0.000000
0.778854 0.000000 0.000000
0.832384 0.000000 0.000000
0.888885 0.000000 0.000000
0.948530 0.000000 0.000000
1.000000 0.000000 0.000000
1.000000 0.000000 0.000000
1.000000 0.000000 0.000000
1.000000 0.000000 0.000000
1.000000 0.000000 0.000000
1.000000 0.000000 0.000000
1.000000 0.000000 0.000000
1.000000 0.000000 0.000000
1.000000 0.000000 0.000000
1.000000 0.000000 0.000000
1.000000 0.000000 0.000000
1.000000 0.000000 0.000000
1.000000 0.000000 0.000000
1.000000 0.000000 0.000000
1.000000 0.000000 0.000000
1.000000 0.000000 0.000000
1.000000 0.000000 0.000000
1.000000 0.000000 0.000000
1.000000 0.000000 0.000000
1.000000 0.000000 0.000000
1.000000 0.000000 0.000000
1.000000 0.000000 0.000000
1.000000 0.000000 0.000000
1.000000 0.000000 0.000000
1.000000 0.000000 0.000000
1.000000 0.000000 0.000000
1.000000 0.000000 0.000000
1.000000 0.000000 0.000000
1.000000 0.000000 0.000000
1.000000 0.000000 0.000000
1.000000 0.000000 0.000000
0.000000 0.079550 0.000000
0.000000 0.079502 0.000000
0.000000 0.079359 0.000000
0.000000 0.079089 0.000000
0.000000 0.078653 0.000000
0.029972 0.078000 0.000000
0.057410 0.077070 0.000000
0.077765 0.075782 0.000000
0.096616 0.074031 0.000000
0.115213 0.071674 0.000000
0.134080 0.068504 0.000000
0.153503 0.064200 0.000000
0.173667 0.058210 0.000000
0.194709 0.049370 0.000000
0.216741 0.033959 0.000000
0.239858 0.000000 0.000000
0.264149 0.000000 0.000000
0.289701 0.000000 0.000000
0.316597 0.000000 0.000000
0.344922 0.000000 0.000000
0.374764 0.000000 0.000000
0.406212 0.000000 0.000000
0.439359 0.000000 0.000000
0.474303 0.000000 0.000000
0.511147 0.000000 0.000000
0.549999 0.000000 0.000000
0.590973 0.000000 0.000000
0.634190 0.000000 0.000000
0.679778 0.000000 0.000000
0.727872 0.000000 0.000000
0.778618 0.000000 0.000000
0.832170 0.000000 0.000000
0.888689 0.000000 0.000000
0.948352 0.000000 0.000000
1.000000 0.000000 0.000000
1.000000 0.000000 0.000000
1.000000 0.000000 0.000000
1.000000 0.000000 0.000000
1.000000 0.000000 0.000000
1.000000 0.000000 0.000000
1.000000 0.000000 0.000000
1.000000 0.000000 0.000000
1.000000 0.000000 0.000000
1.000000 0.000000 0.000000
1.000000 0.000000 0.000000
1.000000 0.000000 0.000000
1.000000 0.000000 0.000000
1.000000 0.000000 0.000000
1.000000 0.000000 0.000000
1.000000 0.000000 0.000000
1.000000 0.000000 0.000000
1.000000 0.000000 0.000000
1.000000 0.000000 0.000000
1.000000 0.000000 0.000000
1.000000 0.000000 0.000000
1.000000 0.000000 0.000000
1.000000 0.000000 0.000000
1.000000 0.000000 0.000000
1.000000 0.000000 0.000000
1.000000 0.000000 0.000000
1.000000 0.000000 0.000000
1.000000 0.000000 0.000000
1.000000 0.000000 0.000000
1.000000 0.000000 0.000000
1.000000 0.000000 0.000000
0.000000 0.092648 0.000000
0.000000 0.092609 0.000000
0.000000 0.092494 0.000000
0.000000 0.092276 0.000000
0.000000 0.091925 0.000000
0.000000 0.091401 0.000000
0.042966 0.090658 0.000000
0.069289 0.089636 0.000000
0.090569 0.088259 0.000000
0.110561 0.086431 0.000000
0.130351 0.084020 0.000000
0.150434 0.080844 0.000000
0.171095 0.076633 0.000000
0.192523 0.070951 0.000000
0.214863 0.063000 0.000000
0.238230 0.050896 0.000000
0.262729 0.025653 0.000000
0.288454 0.000000 0.000000
0.315496 0.000000 0.000000
0.343947 0.000000 0.000000
0.373896 0.000000 0.000000
0.405436 0.000000 0.000000
0.438664 0.000000 0.000000
0.473679 0.000000 0.000000
0.510585 0.000000 0.000000
0.549492 0.000000 0.000000
0.590514 0.000000 0.000000
0.633774 0.000000 0.000000
0.679401 0.000000 0.000000
0.727530 0.000000 0.000000
0.778307 0.000000 0.000000
0.831886 0.000000 0.000000
0.888430 0.000000 0.000000
0.948115 0.000000 0.000000
1.000000 0.000000 0.000000
1.000000 0.000000 0.000000
1.000000 0.000000 0.000000
1.000000 0.000000 0.000000
1.000000 0.000000 0.000000
1.000000 0.000000 0.000000
1.000000 0.000000 0.000000
1.000000 0.000000 0.000000
1.000000 0.000000 0.000000
1.000000 0.000000 0.000000
1.000000 0.000000 0.000000
1.000000 0.000000 0.000000
1.000000 0.000000 0.000000
1.000000 0.000000 0.000000
1.000000 0.000000 0.000000
1.000000 0.000000 0.000000
1.000000 0.000000 0.000000
1.000000 0.000000 0.000000
1.000000 0.000000 0.000000
1.000000 0.000000 0.000000
1.000000 0.000000 0.000000
1.000000 0.000000 0.000000
1.000000 0.000000 0.000000
1.000000 0.000000 0.000000
1.000000 0.000000 0.000000
1.000000 0.000000 0.000000
1.000000 0.000000 0.000000
1.000000 0.000000 0.000000
1.000000 0.000000 0.000000
1.000000 0.000000 0.000000
1.000000 0.000000 0.000000
0.000000 0.106486 0.000000
0.000000 0.106455 0.000000
0.000000 0.106360 0.000000
0.000000 0.106181 0.000000
0.000000 0.105892 0.000000
0.000000 0.105463 0.000000
0.000000 0.104856 0.000000
0.055487 0.104024 0.000000
0.081780 0.102910 0.000000
0.104097 0.101442 0.000000
0.125289 0.099528 0.000000
0.146326 0.097045 0.000000
0.167682 0.093828 0.000000
0.189640 0.089638 0.000000
0.212397 0.084113 0.000000
0.236100 0.076635 0.000000
0.260874 0.065967 0.000000
0.286828 0.048599 0.000000
0.314063 0.000000 0.000000
0.342677 0.000000 0.000000
0.372767 0.000000 0.000000
0.404429 0.000000 0.000000
0.437762 0.000000 0.000000
0.472869 0.000000 0.000000
0.509856 0.000000 0.000000
0.548834 0.000000 0.000000
0.589920 0.000000 0.000000
0.633236 0.000000 0.000000
0.678912 0.000000 0.000000
0.727086 0.000000 0.000000
0.777903 0.000000 0.000000
0.831518 0.000000 0.000000
0.888095 0.000000 0.000000
0.947809 0.000000 0.000000
1.000000 0.000000 0.000000
1.000000 0.000000 0.000000
1.000000 0.000000 0.000000
1.000000 0.000000 0.000000
1.000000 0.000000 0.000000
1.000000 0.000000 0.000000
1.000000 0.000000 0.000000
1.000000 0.000000 0.000000
1.000000 0.000000 0.000000
1.000000 0.000000 0.000000
1.000000 0.000000 0.000000
1.000000 0.000000 0.000000
1.000000 0.000000 0.000000
1.000000 0.000000 0.000000
1.000000 0.000000 0.000000
1.000000 0.000000 0.000000
1.000000 0.000000 0.000000
1.000000 0.000000 0.000000
1.000000 0.000000 0.000000
1.000000 0.000000 0.000000
1.000000 0.000000 0.000000
1.000000 0.000000 0.000000
1.000000 0.000000 0.000000
1.000000 0.000000 0.000000
1.000000 0.000000 0.000000
1.000000 0.000000 0.000000
1.000000 0.000000 0.000000
1.000000 0.000000 0.000000
1.000000 0.000000 0.000000
1.000000 0.000000 0.000000
1.000000 0.000000 0.000000
0.000000 0.121111 0.000000
0.000000 0.121084 0.000000
0.000000 0.121005 0.000000
0.000000 0.120855 0.000000
0.000000 0.120615 0.000000
0.000000 0.120258 0.000000
0.000000 0.119753 0.000000
0.021501 0.119063 0.000000
0.068181 0.118143 0.000000
0.094943 0.116937 0.000000
0.118393 0.115374 0.000000
0.140846 0.113366 0.000000
0.163188 0.110797 0.000000
0.185876 0.107513 0.000000
0.209195 0.103297 0.000000
0.233346 0.097832 0.000000
0.258483 0.090608 0.000000
0.284737 0.080701 0.000000
0.312223 0.066005 0.000000
0.341050 0.037791 0.000000
0.371322 0.000000 0.000000
0.403140 0.000000 0.000000
0.436609 0.000000 0.000000
0.471835 0.000000 0.000000
0.508926 0.000000 0.000000
0.547995 0.000000 0.000000
0.589161 0.000000 0.000000
0.632549 0.000000 0.000000
0.678289 0.000000 0.000000
0.726520 0.000000 0.000000
0.777388 0.000000 0.000000
0.831049 0.000000 0.000000
0.887667 0.000000 0.000000
0.947419 0.000000 0.000000
1.000000 0.000000 0.000000
1.000000 0.000000 0.000000
1.000000 0.000000 0.000000
1.000000 0.000000 0.000000
1.000000 0.000000 0.000000
1.000000 0.000000 0.000000
1.000000 0.000000 0.000000
1.000000 0.000000 0.000000
1.000000 0.000000 0.000000
1.000000 0.000000 0.000000
1.000000 0.000000 0.000000
1.000000 0.000000 0.000000
1.000000 0.000000 0.000000
1.000000 0.000000 0.000000
1.000000 0.000000 0.000000
1.000000 0.000000 0.000000
1.000000 0.000000 0.000000
1.000000 0.000000 0.000000
1.000000 0.000000 0.000000
1.000000 0.000000 0.000000
1.000000 0.000000 0.000000
1.000000 0.000000 0.000000
1.000000 0.000000 0.000000
1.000000 0.000000 0.000000
1.000000 0.000000 0.000000
1.000000 0.000000 0.000000
1.000000 0.000000 0.000000
1.000000 0.000000 0.000000
1.000000 0.000000 0.000000
1.000000 0.000000 0.000000
1.000000 0.000000 0.000000
0.000000 0.136565 0.000000
0.000000 0.136543 0.000000
0.000000 0.136476 0.000000
0.000000 0.136350 0.000000
0.000000 0.136147 0.000000
0.000000 0.135846 0.000000
0.000000 0.135420 0.000000
0.000000 0.134840 0.000000
0.041964 0.134068 0.000000
0.081303 0.133059 0.000000
0.108832 0.131758 0.000000
0.133501 0.130097 0.000000
0.157278 0.127988 0.000000
0.180986 0.125321 0.000000
0.205070 0.121949 0.000000
0.229817 0.117672 0.000000
0.255432 0.112202 0.000000
0.282077 0.105099 0.000000
0.309889 0.095616 0.000000
0.338989 0.082259 0.000000
0.369493 0.060814 0.000000
0.401512 0.000000 0.000000
0.435154 0.000000 0.000000
0.470529 0.000000 0.000000
0.507752 0.000000 0.000000
0.546937 0.000000 0.000000
0.588206 0.000000 0.000000
0.631684 0.000000 0.000000
0.677505 0.000000 0.000000
0.725808 0.000000 0.000000
0.776740 0.000000 0.000000
0.830459 0.000000 0.000000
0.887129 0.000000 0.000000
0.946927 0.000000 0.000000
1.000000 0.000000 0.000000
1.000000 0.000000 0.000000
1.000000 0.000000 0.000000
1.000000 0.000000 0.000000
1.000000 0.000000 0.000000
1.000000 0.000000 0.000000
1.000000 0.000000 0.000000
1.000000 0.000000 0.000000
1.000000 0.000000 0.000000
1.000000 0.000000 0.000000
1.000000 0.000000 0.000000
1.000000 0.000000 0.000000
1.000000 0.000000 0.000000
1.000000 0.000000 0.000000
1.000000 0.000000 0.000000
1.000000 0.000000 0.000000
1.000000 0.000000 0.000000
1.000000 0.000000 0.000000
1.000000 0.000000 0.000000
1.000000 0.000000 0.000000
1.000000 0.000000 0.000000
1.000000 0.000000 0.000000
1.000000 0.000000 0.000000
1.000000 0.000000 0.000000
1.000000 0.000000 0.000000
1.000000 0.000000 0.000000
1.000000 0.000000 0.000000
1.000000 0.000000 0.000000
1.000000 0.000000 0.000000
1.000000 0.000000 0.000000
1.000000 0.000000 0.000000
0.000000 0.152897 0.000000
0.000000 0.152878 0.000000
0.000000 0.152820 0.000000
0.000000 0.152713 0.000000
0.000000 0.152539 0.000000
0.000000 0.152283 0.000000
0.000000 0.151920 0.000000
0.000000 0.151427 0.000000
0.000000 0.150771 0.000000
0.057705 0.149916 0.000000
0.094991 0.148817 0.000000
0.123494 0.147419 0.000000
0.149466 0.145654 0.000000
0.174634 0.143437 0.000000
0.199772 0.140661 0.000000
0.225320 0.137185 0.000000
0.251566 0.132818 0.000000
0.278720 0.127296 0.000000
0.306951 0.120224 0.000000
0.336401 0.110966 0.000000
0.367202 0.098356 0.000000
0.399474 0.079679 0.000000
0.433334 0.042816 0.000000
0.468899 0.000000 0.000000
0.506287 0.000000 0.000000
0.545617 0.000000 0.000000
0.587014 0.000000 0.000000
0.630606 0.000000 0.000000
0.676527 0.000000 0.000000
0.724920 0.000000 0.000000
0.775933 0.000000 0.000000
0.829724 0.000000 0.000000
0.886459 0.000000 0.000000
0.946316 0.000000 0.000000
1.000000 0.000000 0.000000
1.000000 0.000000 0.000000
1.000000 0.000000 0.000000
1.000000 0.000000 0.000000
1.000000 0.000000 0.000000
1.000000 0.000000 0.000000
1.000000 0.000000 0.000000
1.000000 0.000000 0.000000
1.000000 0.000000 0.000000
1.000000 0.000000 0.000000
1.000000 0.000000 0.000000
1.000000 0.000000 0.000000
1.000000 0.000000 0.000000
1.000000 0.000000 0.000000
1.000000 0.000000 0.000000
1.000000 0.000000 0.000000
1.000000 0.000000 0.000000
1.000000 0.000000 0.000000
1.000000 0.000000 0.000000
1.000000 0.000000 0.000000
1.000000 0.000000 0.000000
1.000000 0.000000 0.000000
1.000000 0.000000 0.000000
1.000000 0.000000 0.000000
1.000000 0.000000 0.000000
1.000000 0.000000 0.000000
1.000000 0.000000 0.000000
1.000000 0.000000 0.000000
1.000000 0.000000 0.000000
1.000000 0.000000 0.000000
1.000000 0.000000 0.000000
0.000000 0.170151 0.000000
0.000000 0.170135 0.000000
0.000000 0.170085 0.000000
0.000000 0.169993 0.000000
0.000000 0.169844 0.000000
0.000000 0.169623 0.000000
0.000000 0.169311 0.000000
0.000000 0.168888 0.000000
0.000000 0.168325 0.000000
0.000000 0.167593 0.000000
0.072590 0.166654 0.000000
0.109339 0.165463 0.000000
0.138976 0.163964 0.000000
0.166333 0.162091 0.000000
0.192962 0.159760 0.000000
0.219602 0.156864 0.000000
0.246685 0.153268 0.000000
0.274505 0.148788 0.000000
0.303276 0.143176 0.000000
0.333175 0.136068 0.000000
0.364351 0.126904 0.000000
0.396942 0.114715 0.000000
0.431077 0.097502 0.000000
0.466879 0.069205 0.000000
0.504474 0.000000 0.000000
0.543985 0.000000 0.000000
0.585541 0.000000 0.000000
0.629274 0.000000 0.000000
0.675321 0.000000 0.000000
0.723825 0.000000 0.000000
0.774938 0.000000 0.000000
0.828818 0.000000 0.000000
0.885633 0.000000 0.000000
0.945562 0.000000 0.000000
