luts/PQ1000_to_Rec709_SDR_g24_YouTubeHint.cube
TITLE "Rec.2020 ST.2084 PQ to Rec.709 SDR (gamma 2.4) - YouTube SDR downconvert hint"
# Input: PQ signal Rec.2020, ref white 203 nits | same shoulder as HLG variant | attach via mkvmerge
LUT_3D_SIZE 9
DOMAIN_MIN 0.0 0.0 0.0
DOMAIN_MAX 1.0 1.0 1.0
0.000000 0.000000 0.000000
0.108647 0.000000 0.000000
0.267326 0.000000 0.000000
0.512417 0.000000 0.000000
0.889275 0.000000 0.000000
1.000000 0.000000 0.000000
1.000000 0.000000 0.000000
1.000000 0.000000 0.000000
1.000000 0.000000 0.000000
0.000000 0.092648 0.000000
0.090569 0.088259 0.000000
0.262729 0.025653 0.000000
0.510585 0.000000 0.000000
0.888430 0.000000 0.000000
1.000000 0.000000 0.000000
1.000000 0.000000 0.000000
1.000000 0.000000 0.000000
1.000000 0.000000 0.000000
0.000000 0.227959 0.000000
0.000000 0.226751 0.000000
0.222844 0.217161 0.000000
0.496207 0.167308 0.000000
0.881906 0.000000 0.000000
1.000000 0.000000 0.000000
1.000000 0.000000 0.000000
1.000000 0.000000 0.000000
1.000000 0.000000 0.000000
0.000000 0.436956 0.000000
0.000000 0.436472 0.000000
0.000000 0.432728 0.000000
0.427152 0.416258 0.000000
0.853341 0.350023 0.000000
1.000000 0.000000 0.000000
1.000000 0.000000 0.000000
1.000000 0.000000 0.000000
1.000000 0.000000 0.000000
0.000000 0.758317 0.000000
0.000000 0.758093 0.000000
0.000000 0.756372 0.000000
0.000000 0.748985 0.000000
0.741302 0.722396 0.000000
1.000000 0.521420 0.000000
1.000000 0.000000 0.000000
1.000000 0.000000 0.000000
1.000000 0.000000 0.000000
0.000000 1.000000 0.000000
0.000000 1.000000 0.000000
0.000000 1.000000 0.000000
0.000000 1.000000 0.000000
0.000000 1.000000 0.000000
1.000000 0.995328 0.000000
1.000000 0.543455 0.000000
1.000000 0.000000 0.000000
1.000000 0.000000 0.000000
0.000000 1.000000 0.000000
0.000000 1.000000 0.000000
0.000000 1.000000 0.000000
0.000000 1.000000 0.000000
0.000000 1.000000 0.000000
0.000000 1.000000 0.000000
1.000000 1.000000 0.000000
1.000000 0.546902 0.000000
1.000000 0.000000 0.000000
0.000000 1.000000 0.000000
0.000000 1.000000 0.000000
0.000000 1.000000 0.000000
0.000000 1.000000 0.000000
0.000000 1.000000 0.000000
0.000000 1.000000 0.000000
0.000000 1.000000 0.000000
1.000000 1.000000 0.000000
1.000000 0.538639 0.000000
0.000000 1.000000 0.000000
0.000000 1.000000 0.000000
0.000000 1.000000 0.000000
0.000000 1.000000 0.000000
0.000000 1.000000 0.000000
0.000000 1.000000 0.000000
0.000000 1.000000 0.000000
0.000000 1.000000 0.000000
1.000000 1.000000 0.000000
0.000000 0.000000 0.092163
0.106635 0.000000 0.091537
0.266762 0.000000 0.086516
0.512190 0.000000 0.057984
0.889170 0.000000 0.000000
1.000000 0.000000 0.000000
1.000000 0.000000 0.000000
1.000000 0.000000 0.000000
1.000000 0.000000 0.000000
0.000000 0.092362 0.088615
0.087954 0.087954 0.087954
0.262151 0.023848 0.082622
0.510358 0.000000 0.050759
0.888325 0.000000 0.000000
1.000000 0.000000 0.000000
1.000000 0.000000 0.000000
1.000000 0.000000 0.000000
1.000000 0.000000 0.000000
0.000000 0.227878 0.049018
0.000000 0.226670 0.047477
0.222116 0.217074 0.031996
0.495970 0.167184 0.000000
0.881800 0.000000 0.000000
1.000000 0.000000 0.000000
1.000000 0.000000 0.000000
1.000000 0.000000 0.000000
1.000000 0.000000 0.000000
0.000000 0.436924 0.000000
0.000000 0.436439 0.000000
0.000000 0.432695 0.000000
0.426860 0.416223 0.000000
0.853230 0.349979 0.000000
1.000000 0.000000 0.000000
1.000000 0.000000 0.000000
1.000000 0.000000 0.000000
1.000000 0.000000 0.000000
0.000000 0.758302 0.000000
0.000000 0.758078 0.000000
0.000000 0.756357 0.000000
0.000000 0.748970 0.000000
0.741167 0.722380 0.000000
1.000000 0.521404 0.000000
1.000000 0.000000 0.000000
1.000000 0.000000 0.000000
1.000000 0.000000 0.000000
0.000000 1.000000 0.000000
0.000000 1.000000 0.000000
0.000000 1.000000 0.000000
0.000000 1.000000 0.000000
0.000000 1.000000 0.000000
1.000000 0.995321 0.000000
1.000000 0.543450 0.000000
1.000000 0.000000 0.000000
1.000000 0.000000 0.000000
0.000000 1.000000 0.000000
0.000000 1.000000 0.000000
0.000000 1.000000 0.000000
0.000000 1.000000 0.000000
0.000000 1.000000 0.000000
0.000000 1.000000 0.000000
1.000000 1.000000 0.000000
1.000000 0.546900 0.000000
1.000000 0.000000 0.000000
0.000000 1.000000 0.000000
0.000000 1.000000 0.000000
0.000000 1.000000 0.000000
0.000000 1.000000 0.000000
0.000000 1.000000 0.000000
0.000000 1.000000 0.000000
0.000000 1.000000 0.000000
1.000000 1.000000 0.000000
1.000000 0.538638 0.000000
0.000000 1.000000 0.000000
0.000000 1.000000 0.000000
0.000000 1.000000 0.000000
0.000000 1.000000 0.000000
0.000000 1.000000 0.000000
0.000000 1.000000 0.000000
0.000000 1.000000 0.000000
0.000000 1.000000 0.000000
1.000000 1.000000 0.000000
0.000000 0.000000 0.226766
0.088981 0.000000 0.226590
0.262375 0.000000 0.225226
0.510446 0.000000 0.219287
0.888366 0.000000 0.196566
1.000000 0.000000 0.042158
1.000000 0.000000 0.000000
1.000000 0.000000 0.000000
1.000000 0.000000 0.000000
0.000000 0.090131 0.225785
0.062509 0.085559 0.225607
0.257654 0.000000 0.224235
0.508605 0.000000 0.218258
0.887520 0.000000 0.195365
1.000000 0.000000 0.034579
1.000000 0.000000 0.000000
1.000000 0.000000 0.000000
1.000000 0.000000 0.000000
0.000000 0.227257 0.218038
0.000000 0.226044 0.217851
0.216410 0.216410 0.216410
0.494145 0.166224 0.210118
0.880986 0.000000 0.185778
1.000000 0.000000 0.000000
1.000000 0.000000 0.000000
1.000000 0.000000 0.000000
1.000000 0.000000 0.000000
0.000000 0.436674 0.179609
0.000000 0.436190 0.179363
0.000000 0.432443 0.177466
0.424606 0.415956 0.169050
0.852378 0.349639 0.133640
1.000000 0.000000 0.000000
1.000000 0.000000 0.000000
1.000000 0.000000 0.000000
1.000000 0.000000 0.000000
0.000000 0.758187 0.000000
0.000000 0.757963 0.000000
0.000000 0.756242 0.000000
0.000000 0.748853 0.000000
0.740129 0.722257 0.000000
1.000000 0.521279 0.000000
1.000000 0.000000 0.000000
1.000000 0.000000 0.000000
1.000000 0.000000 0.000000
0.000000 1.000000 0.000000
0.000000 1.000000 0.000000
0.000000 1.000000 0.000000
0.000000 1.000000 0.000000
0.000000 1.000000 0.000000
1.000000 0.995270 0.000000
1.000000 0.543412 0.000000
1.000000 0.000000 0.000000
1.000000 0.000000 0.000000
0.000000 1.000000 0.000000
0.000000 1.000000 0.000000
0.000000 1.000000 0.000000
0.000000 1.000000 0.000000
0.000000 1.000000 0.000000
0.000000 1.000000 0.000000
1.000000 1.000000 0.000000
1.000000 0.546888 0.000000
1.000000 0.000000 0.000000
0.000000 1.000000 0.000000
0.000000 1.000000 0.000000
0.000000 1.000000 0.000000
0.000000 1.000000 0.000000
0.000000 1.000000 0.000000
0.000000 1.000000 0.000000
0.000000 1.000000 0.000000
1.000000 1.000000 0.000000
1.000000 0.538635 0.000000
0.000000 1.000000 0.000000
0.000000 1.000000 0.000000
0.000000 1.000000 0.000000
0.000000 1.000000 0.000000
0.000000 1.000000 0.000000
0.000000 1.000000 0.000000
0.000000 1.000000 0.000000
0.000000 1.000000 0.000000
1.000000 1.000000 0.000000
0.000000 0.000000 0.434670
0.000000 0.000000 0.434599
0.242431 0.000000 0.434053
0.502927 0.000000 0.431718
0.884931 0.000000 0.423434
1.000000 0.000000 0.329082
1.000000 0.000000 0.145536
1.000000 0.000000 0.000000
1.000000 0.000000 0.000000
0.000000 0.079621 0.434277
0.000000 0.074110 0.434205
0.237142 0.000000 0.433659
0.501047 0.000000 0.431320
0.884080 0.000000 0.423026
1.000000 0.000000 0.328708
1.000000 0.000000 0.145159
1.000000 0.000000 0.000000
1.000000 0.000000 0.000000
0.000000 0.224587 0.431235
0.000000 0.223354 0.431163
0.189338 0.213547 0.430611
0.486270 0.162048 0.428250
0.877510 0.000000 0.419870
1.000000 0.000000 0.325810
1.000000 0.000000 0.142221
1.000000 0.000000 0.000000
1.000000 0.000000 0.000000
0.000000 0.435611 0.417939
0.000000 0.435125 0.417864
0.000000 0.431365 0.417287
0.414818 0.414818 0.414818
0.848737 0.348186 0.406046
1.000000 0.000000 0.313051
1.000000 0.000000 0.128632
1.000000 0.000000 0.000000
1.000000 0.000000 0.000000
0.000000 0.757696 0.366128
0.000000 0.757472 0.366038
0.000000 0.755750 0.365343
0.000000 0.748354 0.362365
0.735687 0.721732 0.351703
1.000000 0.520745 0.261482
1.000000 0.000000 0.036867
1.000000 0.000000 0.000000
1.000000 0.000000 0.000000
0.000000 1.000000 0.000000
0.000000 1.000000 0.000000
0.000000 1.000000 0.000000
0.000000 1.000000 0.000000
0.000000 1.000000 0.000000
1.000000 0.995054 0.000000
1.000000 0.543251 0.000000
1.000000 0.000000 0.000000
1.000000 0.000000 0.000000
0.000000 1.000000 0.000000
0.000000 1.000000 0.000000
0.000000 1.000000 0.000000
0.000000 1.000000 0.000000
0.000000 1.000000 0.000000
0.000000 1.000000 0.000000
1.000000 1.000000 0.000000
1.000000 0.546838 0.000000
1.000000 0.000000 0.000000
0.000000 1.000000 0.000000
0.000000 1.000000 0.000000
0.000000 1.000000 0.000000
0.000000 1.000000 0.000000
0.000000 1.000000 0.000000
0.000000 1.000000 0.000000
0.000000 1.000000 0.000000
1.000000 1.000000 0.000000
1.000000 0.538619 0.000000
0.000000 1.000000 0.000000
0.000000 1.000000 0.000000
0.000000 1.000000 0.000000
0.000000 1.000000 0.000000
0.000000 1.000000 0.000000
0.000000 1.000000 0.000000
0.000000 1.000000 0.000000
0.000000 1.000000 0.000000
1.000000 1.000000 0.000000
0.000000 0.000000 0.754350
0.000000 0.000000 0.754317
0.140839 0.000000 0.754065
0.475390 0.000000 0.752990
0.872806 0.000000 0.749226
1.000000 0.000000 0.613629
1.000000 0.000000 0.361159
1.000000 0.000000 0.174521
1.000000 0.000000 0.000000
0.000000 0.000000 0.754168
0.000000 0.000000 0.754135
0.129012 0.000000 0.753883
0.473355 0.000000 0.752808
0.871939 0.000000 0.749043
1.000000 0.000000 0.613472
1.000000 0.000000 0.361054
1.000000 0.000000 0.174428
1.000000 0.000000 0.000000
0.000000 0.214912 0.752769
0.000000 0.213599 0.752736
0.000000 0.203122 0.752483
0.457304 0.146149 0.751405
0.865239 0.000000 0.747630
1.000000 0.000000 0.612268
1.000000 0.000000 0.360244
1.000000 0.000000 0.173715
1.000000 0.000000 0.000000
0.000000 0.431876 0.746771
0.000000 0.431384 0.746738
0.000000 0.427578 0.746482
0.377853 0.410816 0.745392
0.835869 0.343053 0.741574
1.000000 0.000000 0.607107
1.000000 0.000000 0.356765
1.000000 0.000000 0.170633
1.000000 0.000000 0.000000
0.000000 0.755983 0.725314
0.000000 0.755759 0.725279
0.000000 0.754030 0.725013
0.000000 0.746611 0.723877
0.719898 0.719898 0.719898
1.000000 0.518877 0.588611
1.000000 0.000000 0.344250
1.000000 0.000000 0.159224
1.000000 0.000000 0.000000
0.000000 1.000000 0.540977
0.000000 1.000000 0.540943
0.000000 1.000000 0.540684
0.000000 1.000000 0.539581
0.000000 1.000000 0.535708
1.000000 0.994302 0.523034
1.000000 0.542688 0.299069
1.000000 0.000000 0.111072
1.000000 0.000000 0.000000
0.000000 1.000000 0.103896
0.000000 1.000000 0.103787
0.000000 1.000000 0.102946
0.000000 1.000000 0.099253
0.000000 1.000000 0.084546
0.000000 1.000000 0.000000
1.000000 1.000000 0.000000
1.000000 0.546661 0.000000
1.000000 0.000000 0.000000
0.000000 1.000000 0.000000
0.000000 1.000000 0.000000
0.000000 1.000000 0.000000
0.000000 1.000000 0.000000
0.000000 1.000000 0.000000
0.000000 1.000000 0.000000
0.000000 1.000000 0.000000
1.000000 1.000000 0.000000
1.000000 0.538563 0.000000
0.000000 1.000000 0.000000
0.000000 1.000000 0.000000
0.000000 1.000000 0.000000
0.000000 1.000000 0.000000
0.000000 1.000000 0.000000
0.000000 1.000000 0.000000
0.000000 1.000000 0.000000
0.000000 1.000000 0.000000
1.000000 1.000000 0.000000
0.000000 0.000000 1.000000
0.000000 0.000000 1.000000
0.000000 0.000000 1.000000
0.305387 0.000000 1.000000
0.692976 0.000000 1.000000
1.000000 0.000000 1.000000
1.000000 0.000000 0.632726
1.000000 0.000000 0.372365
1.000000 0.000000 0.180453
0.000000 0.000000 1.000000
0.000000 0.000000 1.000000
0.000000 0.000000 1.000000
0.302945 0.000000 1.000000
0.692205 0.000000 1.000000
1.000000 0.000000 1.000000
1.000000 0.000000 0.632678
1.000000 0.000000 0.372333
1.000000 0.000000 0.180426
0.000000 0.148864 1.000000
0.000000 0.147447 1.000000
0.000000 0.135862 1.000000
0.283190 0.046480 1.000000
0.686238 0.000000 1.000000
1.000000 0.000000 1.000000
1.000000 0.000000 0.632309
1.000000 0.000000 0.372087
1.000000 0.000000 0.180216
0.000000 0.349365 1.000000
0.000000 0.348938 1.000000
0.000000 0.345637 1.000000
0.159516 0.331060 1.000000
0.659982 0.271301 1.000000
1.000000 0.000000 1.000000
1.000000 0.000000 0.630734
1.000000 0.000000 0.371037
1.000000 0.000000 0.179317
0.000000 0.624844 1.000000
0.000000 0.624655 1.000000
0.000000 0.623201 1.000000
0.000000 0.616958 1.000000
0.554297 0.594470 1.000000
1.000000 0.512832 1.000000
1.000000 0.000000 0.625202
1.000000 0.000000 0.367344
1.000000 0.000000 0.176132
0.000000 1.000000 0.999347
0.000000 1.000000 0.999333
0.000000 1.000000 0.999223
0.000000 1.000000 0.998757
0.000000 1.000000 0.997128
0.991885 0.991885 0.991885
1.000000 0.540880 0.607005
1.000000 0.000000 0.355152
1.000000 0.000000 0.165344
0.000000 1.000000 0.562105
0.000000 1.000000 0.562094
0.000000 1.000000 0.562016
0.000000 1.000000 0.561681
0.000000 1.000000 0.560512
0.000000 1.000000 0.556746
1.000000 1.000000 0.544792
1.000000 0.546093 0.312825
1.000000 0.000000 0.122864
0.000000 1.000000 0.152537
0.000000 1.000000 0.152517
0.000000 1.000000 0.152362
0.000000 1.000000 0.151700
0.000000 1.000000 0.149360
0.000000 1.000000 0.141495
0.000000 1.000000 0.111840
1.000000 1.000000 0.000000
1.000000 0.538383 0.000000
0.000000 1.000000 0.000000
0.000000 1.000000 0.000000
0.000000 1.000000 0.000000
0.000000 1.000000 0.000000
0.000000 1.000000 0.000000
0.000000 1.000000 0.000000
0.000000 1.000000 0.000000
0.000000 1.000000 0.000000
1.000000 1.000000 0.000000
0.000000 0.000000 1.000000
0.000000 0.000000 1.000000
0.000000 0.000000 1.000000
0.000000 0.000000 1.000000
0.354344 0.000000 1.000000
0.716239 0.000000 1.000000
1.000000 0.000000 1.000000
1.000000 0.000000 0.635480
1.000000 0.000000 0.369806
0.000000 0.000000 1.000000
0.000000 0.000000 1.000000
0.000000 0.000000 1.000000
0.000000 0.000000 1.000000
0.353711 0.000000 1.000000
0.716003 0.000000 1.000000
1.000000 0.000000 1.000000
1.000000 0.000000 0.635465
1.000000 0.000000 0.369796
0.000000 0.000000 1.000000
0.000000 0.000000 1.000000
0.000000 0.000000 1.000000
0.000000 0.000000 1.000000
0.348799 0.000000 1.000000
0.714188 0.000000 1.000000
1.000000 0.000000 1.000000
1.000000 0.000000 0.635349
1.000000 0.000000 0.369720
0.000000 0.195736 1.000000
0.000000 0.195429 1.000000
0.000000 0.193042 1.000000
0.000000 0.182387 1.000000
0.326709 0.135609 1.000000
0.706385 0.000000 1.000000
1.000000 0.000000 1.000000
1.000000 0.000000 0.634853
1.000000 0.000000 0.369392
0.000000 0.379781 1.000000
0.000000 0.379660 1.000000
0.000000 0.378724 1.000000
0.000000 0.374706 1.000000
0.224705 0.360199 1.000000
0.678187 0.307045 1.000000
1.000000 0.000000 1.000000
1.000000 0.000000 0.633121
1.000000 0.000000 0.368246
0.000000 0.643861 1.000000
0.000000 0.643803 1.000000
0.000000 0.643357 1.000000
0.000000 0.641453 1.000000
0.000000 0.634754 1.000000
0.574343 0.612603 1.000000
1.000000 0.535198 1.000000
1.000000 0.000000 0.627528
1.000000 0.000000 0.364541
0.000000 1.000000 1.000000
0.000000 1.000000 1.000000
0.000000 1.000000 1.000000
0.000000 1.000000 1.000000
0.000000 1.000000 1.000000
0.000000 1.000000 1.000000
1.000000 1.000000 1.000000
1.000000 0.544324 0.609662
1.000000 0.000000 0.352663
0.000000 1.000000 0.565352
0.000000 1.000000 0.565349
0.000000 1.000000 0.565324
0.000000 1.000000 0.565219
0.000000 1.000000 0.564852
0.000000 1.000000 0.563673
0.000000 1.000000 0.559984
1.000000 1.000000 0.548184
1.000000 0.537825 0.311156
0.000000 1.000000 0.143263
0.000000 1.000000 0.143256
0.000000 1.000000 0.143203
0.000000 1.000000 0.142980
0.000000 1.000000 0.142198
0.000000 1.000000 0.139651
0.000000 1.000000 0.131275
0.000000 1.000000 0.098184
1.000000 1.000000 0.000000
0.000000 0.000000 1.000000
0.000000 0.000000 1.000000
0.000000 0.000000 1.000000
0.000000 0.000000 1.000000
0.000000 0.000000 1.000000
0.371231 0.000000 1.000000
0.719675 0.000000 1.000000
1.000000 0.000000 1.000000
1.000000 0.000000 0.628890
0.000000 0.000000 1.000000
0.000000 0.000000 1.000000
0.000000 0.000000 1.000000
0.000000 0.000000 1.000000
0.000000 0.000000 1.000000
0.371043 0.000000 1.000000
0.719601 0.000000 1.000000
1.000000 0.000000 1.000000
1.000000 0.000000 0.628885
0.000000 0.000000 1.000000
0.000000 0.000000 1.000000
0.000000 0.000000 1.000000
0.000000 0.000000 1.000000
0.000000 0.000000 1.000000
0.369596 0.000000 1.000000
0.719029 0.000000 1.000000
1.000000 0.000000 1.000000
1.000000 0.000000 0.628848
0.000000 0.046444 1.000000
0.000000 0.045704 1.000000
0.000000 0.039358 1.000000
0.000000 0.000000 1.000000
0.000000 0.000000 1.000000
0.363342 0.000000 1.000000
0.716590 0.000000 1.000000
1.000000 0.000000 1.000000
1.000000 0.000000 0.628693
0.000000 0.216352 1.000000
0.000000 0.216267 1.000000
0.000000 0.215614 1.000000
0.000000 0.212803 1.000000
0.000000 0.202571 1.000000
0.340259 0.163500 1.000000
0.707991 0.000000 1.000000
1.000000 0.000000 1.000000
1.000000 0.000000 0.628149
0.000000 0.390381 1.000000
0.000000 0.390344 1.000000
0.000000 0.390058 1.000000
0.000000 0.388841 1.000000
0.000000 0.384555 1.000000
0.244773 0.370357 1.000000
0.679417 0.320346 1.000000
1.000000 0.000000 1.000000
1.000000 0.000000 0.626404
0.000000 0.646583 1.000000
0.000000 0.646565 1.000000
0.000000 0.646424 1.000000
0.000000 0.645825 1.000000
0.000000 0.643730 1.000000
0.000000 0.636955 1.000000
0.577367 0.615201 1.000000
1.000000 0.538718 1.000000
1.000000 0.000000 0.620930
0.000000 1.000000 1.000000
0.000000 1.000000 1.000000
0.000000 1.000000 1.000000
0.000000 1.000000 1.000000
0.000000 1.000000 1.000000
0.000000 1.000000 1.000000
0.000000 1.000000 1.000000
1.000000 1.000000 1.000000
1.000000 0.536067 0.603305
0.000000 1.000000 0.557571
0.000000 1.000000 0.557570
0.000000 1.000000 0.557562
0.000000 1.000000 0.557529
0.000000 1.000000 0.557413
0.000000 1.000000 0.557041
0.000000 1.000000 0.555882
0.000000 1.000000 0.552225
1.000000 1.000000 0.540053
0.000000 0.000000 1.000000
0.000000 0.000000 1.000000
0.000000 0.000000 1.000000
0.000000 0.000000 1.000000
0.000000 0.000000 1.000000
0.000000 0.000000 1.000000
0.367408 0.000000 1.000000
0.711451 0.000000 1.000000
1.000000 0.000000 1.000000
0.000000 0.000000 1.000000
0.000000 0.000000 1.000000
0.000000 0.000000 1.000000
0.000000 0.000000 1.000000
0.000000 0.000000 1.000000
0.000000 0.000000 1.000000
0.367349 0.000000 1.000000
0.711427 0.000000 1.000000
1.000000 0.000000 1.000000
0.000000 0.000000 1.000000
0.000000 0.000000 1.000000
0.000000 0.000000 1.000000
0.000000 0.000000 1.000000
0.000000 0.000000 1.000000
0.000000 0.000000 1.000000
0.366895 0.000000 1.000000
0.711247 0.000000 1.000000
1.000000 0.000000 1.000000
0.000000 0.000000 1.000000
0.000000 0.000000 1.000000
0.000000 0.000000 1.000000
0.000000 0.000000 1.000000
0.000000 0.000000 1.000000
0.000000 0.000000 1.000000
0.364953 0.000000 1.000000
0.710481 0.000000 1.000000
1.000000 0.000000 1.000000
0.000000 0.076622 1.000000
0.000000 0.076509 1.000000
0.000000 0.075637 1.000000
0.000000 0.071758 1.000000
0.000000 0.055097 1.000000
0.000000 0.000000 1.000000
0.358067 0.000000 1.000000
0.707800 0.000000 1.000000
1.000000 0.000000 1.000000
0.000000 0.220840 1.000000
0.000000 0.220815 1.000000
0.000000 0.220618 1.000000
0.000000 0.219780 1.000000
0.000000 0.216823 1.000000
0.000000 0.206949 1.000000
0.334654 0.170901 1.000000
0.699116 0.000000 1.000000
1.000000 0.000000 1.000000
0.000000 0.387957 1.000000
0.000000 0.387945 1.000000
0.000000 0.387856 1.000000
0.000000 0.387476 1.000000
0.000000 0.386149 1.000000
0.000000 0.381853 1.000000
0.240323 0.368034 1.000000
0.671078 0.319060 1.000000
1.000000 0.000000 1.000000
0.000000 0.640070 1.000000
0.000000 0.640064 1.000000
0.000000 0.640020 1.000000
0.000000 0.639832 1.000000
0.000000 0.639175 1.000000
0.000000 0.637066 1.000000
0.000000 0.630438 1.000000
0.570127 0.608986 1.000000
1.000000 0.530276 1.000000
0.000000 1.000000 1.000000
0.000000 1.000000 1.000000
0.000000 1.000000 1.000000
0.000000 1.000000 1.000000
0.000000 1.000000 1.000000
0.000000 1.000000 1.000000
0.000000 1.000000 1.000000
0.000000 1.000000 1.000000
1.000000 1.000000 1.000000
