luts/PQ1000_to_Rec709_SDR_g24_YouTubeHint.cube
TITLE "Rec.2020 ST.2084 PQ to Rec.709 SDR (gamma 2.4) - YouTube SDR downconvert hint"
# Input: PQ signal Rec.2020, ref white 203 nits | same shoulder as HLG variant | attach via mkvmerge
LUT_3D_SIZE 5
DOMAIN_MIN 0.0 0.0 0.0
DOMAIN_MAX 1.0 1.0 1.0
0.000000 0.000000 0.000000
0.267326 0.000000 0.000000
0.889275 0.000000 0.000000
1.000000 0.000000 0.000000
1.000000 0.000000 0.000000
0.000000 0.227959 0.000000
0.222844 0.217161 0.000000
0.881906 0.000000 0.000000
1.000000 0.000000 0.000000
1.000000 0.000000 0.000000
0.000000 0.758317 0.000000
0.000000 0.756372 0.000000
0.741302 0.722396 0.000000
1.000000 0.000000 0.000000
1.000000 0.000000 0.000000
0.000000 1.000000 0.000000
0.000000 1.000000 0.000000
0.000000 1.000000 0.000000
1.000000 1.000000 0.000000
1.000000 0.000000 0.000000
0.000000 1.000000 0.000000
0.000000 1.000000 0.000000
0.000000 1.000000 0.000000
0.000000 1.000000 0.000000
1.000000 1.000000 0.000000
0.000000 0.000000 0.226766
0.262375 0.000000 0.225226
0.888366 0.000000 0.196566
1.000000 0.000000 0.000000
1.000000 0.000000 0.000000
0.000000 0.227257 0.218038
0.216410 0.216410 0.216410
0.880986 0.000000 0.185778
1.000000 0.000000 0.000000
1.000000 0.000000 0.000000
0.000000 0.758187 0.000000
0.000000 0.756242 0.000000
0.740129 0.722257 0.000000
1.000000 0.000000 0.000000
1.000000 0.000000 0.000000
0.000000 1.000000 0.000000
0.000000 1.000000 0.000000
0.000000 1.000000 0.000000
1.000000 1.000000 0.000000
1.000000 0.000000 0.000000
0.000000 1.000000 0.000000
0.000000 1.000000 0.000000
0.000000 1.000000 0.000000
0.000000 1.000000 0.000000
1.000000 1.000000 0.000000
0.000000 0.000000 0.754350
0.140839 0.000000 0.754065
0.872806 0.000000 0.749226
1.000000 0.000000 0.361159
1.000000 0.000000 0.000000
0.000000 0.214912 0.752769
0.000000 0.203122 0.752483
0.865239 0.000000 0.747630
1.000000 0.000000 0.360244
1.000000 0.000000 0.000000
0.000000 0.755983 0.725314
0.000000 0.754030 0.725013
0.719898 0.719898 0.719898
1.000000 0.000000 0.344250
1.000000 0.000000 0.000000
0.000000 1.000000 0.103896
0.000000 1.000000 0.102946
0.000000 1.000000 0.084546
1.000000 1.000000 0.000000
1.000000 0.000000 0.000000
0.000000 1.000000 0.000000
0.000000 1.000000 0.000000
0.000000 1.000000 0.000000
0.000000 1.000000 0.000000
1.000000 1.000000 0.000000
0.000000 0.000000 1.000000
0.000000 0.000000 1.000000
0.354344 0.000000 1.000000
1.000000 0.000000 1.000000
1.000000 0.000000 0.369806
0.000000 0.000000 1.000000
0.000000 0.000000 1.000000
0.348799 0.000000 1.000000
1.000000 0.000000 1.000000
1.000000 0.000000 0.369720
0.000000 0.379781 1.000000
0.000000 0.378724 1.000000
0.224705 0.360199 1.000000
1.000000 0.000000 1.000000
1.000000 0.000000 0.368246
0.000000 1.000000 1.000000
0.000000 1.000000 1.000000
0.000000 1.000000 1.000000
1.000000 1.000000 1.000000
1.000000 0.000000 0.352663
0.000000 1.000000 0.143263
0.000000 1.000000 0.143203
0.000000 1.000000 0.142198
0.000000 1.000000 0.131275
1.000000 1.000000 0.000000
0.000000 0.000000 1.000000
0.000000 0.000000 1.000000
0.000000 0.000000 1.000000
0.367408 0.000000 1.000000
1.000000 0.000000 1.000000
0.000000 0.000000 1.000000
0.000000 0.000000 1.000000
0.000000 0.000000 1.000000
0.366895 0.000000 1.000000
1.000000 0.000000 1.000000
0.000000 0.076622 1.000000
0.000000 0.075637 1.000000
0.000000 0.055097 1.000000
0.358067 0.000000 1.000000
1.000000 0.000000 1.000000
0.000000 0.387957 1.000000
0.000000 0.387856 1.000000
0.000000 0.386149 1.000000
0.240323 0.368034 1.000000
1.000000 0.000000 1.000000
0.000000 1.000000 1.000000
0.000000 1.000000 1.000000
0.000000 1.000000 1.000000
0.000000 1.000000 1.000000
1.000000 1.000000 1.000000
